src/assets/svg/filter_buttons/a_to_z_alphabetical_filter_icon.svg

<?xml version="1.0" encoding="UTF-8" standalone="no"?>
<svg
   xmlns:dc="http://purl.org/dc/elements/1.1/"
   xmlns:cc="http://creativecommons.org/ns#"
   xmlns:rdf="http://www.w3.org/1999/02/22-rdf-syntax-ns#"
   xmlns:svg="http://www.w3.org/2000/svg"
   xmlns="http://www.w3.org/2000/svg"
   xmlns:sodipodi="http://sodipodi.sourceforge.net/DTD/sodipodi-0.dtd"
   xmlns:inkscape="http://www.inkscape.org/namespaces/inkscape"
   width="40"
   height="40"
   viewBox="0 0 10.583333 10.583334"
   version="1.1"
   id="svg8"
   inkscape:version="1.0 (4035a4fb49, 2020-05-01)"
   sodipodi:docname="a_to_z_alphabetical_filter_icon.svg">
  <defs
     id="defs2" />
  <sodipodi:namedview
     id="base"
     pagecolor="#ffffff"
     bordercolor="#666666"
     borderopacity="1.0"
     inkscape:pageopacity="0.0"
     inkscape:pageshadow="2"
     inkscape:zoom="11.2"
     inkscape:cx="3.2288896"
     inkscape:cy="22.193169"
     inkscape:document-units="mm"
     inkscape:current-layer="layer1"
     inkscape:document-rotation="0"
     showgrid="false"
     units="px"
     inkscape:window-width="1920"
     inkscape:window-height="996"
     inkscape:window-x="-9"
     inkscape:window-y="44"
     inkscape:window-maximized="1" />
  <metadata
     id="metadata5">
    <rdf:RDF>
      <cc:Work
         rdf:about="">
        <dc:format>image/svg+xml</dc:format>
        <dc:type
           rdf:resource="http://purl.org/dc/dcmitype/StillImage" />
        <dc:title></dc:title>
      </cc:Work>
    </rdf:RDF>
  </metadata>
  <g
     inkscape:label="Layer 1"
     inkscape:groupmode="layer"
     id="layer1">
    <rect
       ry="2.7843125"
       y="0.024412835"
       x="0.024412198"
       height="10.534508"
       width="10.534507"
       id="rect2662"
       style="fill:#ff7070;fill-opacity:1;stroke:#ff7070;stroke-width:0.0488251;stroke-miterlimit:4;stroke-dasharray:none;stroke-opacity:1"
       inkscape:export-xdpi="96"
       inkscape:export-ydpi="96" />
    <g
       style="font-size:7.5015px;line-height:1.25;font-family:Arial;-inkscape-font-specification:Arial;letter-spacing:0px;word-spacing:0px;stroke-width:0.468845"
       id="text2666"
       aria-label="A">
      <path
         id="path863"
         style="font-style:normal;font-variant:normal;font-weight:300;font-stretch:normal;font-family:'Josefin Sans';-inkscape-font-specification:'Josefin Sans Light';fill:#ffffff;fill-opacity:1;stroke-width:0.468845"
         d="m 1.8854372,8.0978374 2.25045,-5.5586115 h 0.030006 L 6.4163433,8.0978374 H 6.0037607 L 4.0458692,3.1243429 4.3009202,2.9818144 2.2530107,8.0978374 Z M 2.9731547,5.9899159 h 2.3629725 l 0.105021,0.345069 H 2.8831367 Z" />
    </g>
    <g
       style="font-size:7.50149px;line-height:1.25;font-family:Arial;-inkscape-font-specification:Arial;letter-spacing:0px;word-spacing:0px;stroke-width:0.468845"
       id="text2670"
       transform="scale(1,-1)"
       aria-label="^">
      <path
         id="path860"
         style="font-style:normal;font-variant:normal;font-weight:300;font-stretch:normal;font-family:'Josefin Sans';-inkscape-font-specification:'Josefin Sans Light';fill:#ffffff;fill-opacity:1;stroke-width:0.468845"
         d="M 8.4773044,-7.1329733 Q 8.379785,-7.2755016 8.2672626,-7.4330329 8.1547403,-7.5980657 8.0347164,-7.7630985 7.9221941,-7.9281313 7.8246747,-8.0706596 7.7271554,-7.9281313 7.614633,-7.7630985 7.5021106,-7.5980657 7.3895883,-7.4330329 7.2770659,-7.2755016 7.1795466,-7.1329733 H 6.9244959 Q 7.1495406,-7.4705404 7.3745853,-7.8081074 7.59963,-8.153176 7.8246747,-8.490743 v 0 q 0.2250447,0.337567 0.4500894,0.6826356 0.2325462,0.337567 0.4575909,0.6751341 z" />
    </g>
    <g
       style="font-size:6.92197px;line-height:1.25;font-family:Arial;-inkscape-font-specification:Arial;letter-spacing:0px;word-spacing:0px;stroke-width:0.432627"
       id="text2674"
       transform="scale(1.0837207,-0.92274698)"
       aria-label="|">
      <path
         id="path851"
         style="font-style:normal;font-variant:normal;font-weight:300;font-stretch:normal;font-family:'Josefin Sans';-inkscape-font-specification:'Josefin Sans Light';fill:#ffffff;fill-opacity:1;stroke-width:0.432627"
         d="m 7.0713695,-8.7536363 h 0.3045666 v 6.4858858 H 7.0713695 Z" />
    </g>
  </g>
</svg>

<?xml version="1.0" encoding="UTF-8"?>
<svg width="40" height="40" version="1.1" viewBox="0 0 10.583 10.583" xmlns="http://www.w3.org/2000/svg">
  <!-- Background -->
  <rect x=".024412" y=".024413" width="10.535" height="10.535" ry="2.7843" style="fill:#ff7070;stroke-width:.048825;stroke:#ff7070"/>
  <!-- Alphabet A -->
  <g style="stroke-width:.46884" aria-label="A">
    <path d="m1.8854 8.0978 2.2504-5.5586h0.030006l2.2505 5.5586h-0.41258l-1.9579-4.9735 0.25505-0.14253-2.0479 5.116zm1.0877-2.1079h2.363l0.10502 0.34507h-2.558z" style="fill:#fff;stroke-width:.46884"/>
  </g>
  <!-- Arrow Tip -->
  <g transform="scale(1,-1)" style="stroke-width:.46884" aria-label="^">
    <path d="m8.4773-7.133q-0.097519-0.14253-0.21004-0.30006-0.11252-0.16503-0.23255-0.33007-0.11252-0.16503-0.21004-0.30756-0.097519 0.14253-0.21004 0.30756t-0.22504 0.33007q-0.11252 0.15753-0.21004 0.30006h-0.25505q0.22504-0.33757 0.45009-0.67513 0.22504-0.34507 0.45009-0.68264 0.22504 0.33757 0.45009 0.68264 0.23255 0.33757 0.45759 0.67513z" style="fill:#fff;stroke-width:.46884"/>
  </g>
  <!-- Arrow Stick -->
  <g transform="scale(1.0837 -.92275)" style="stroke-width:.43263" aria-label="|">
    <path d="m7.0714-8.7536h0.30457v6.4859h-0.30457z" style="fill:#fff;stroke-width:.43263"/>
  </g>
</svg>
